X: 18984
T: Inishmurray, The
R: hornpipe
M: 4/4
K: Dmajor
dB|AFDF Adcd|BGDG Bdef|gfed fedc|edcB AGFG|
AFDF Adcd|BGDG Bdef|gfed fedc|e2 d2 d2||
de|fefg fedA|cB B/B/B B2 cd|efed c2 B2|Ad (3fga b2 a2|
dcde fdAF|EFGA BdcB|AdcB AGFE|D2 C2 D2||

